X: 11
T: Crabs In The Skillet
R: jig
M: 6/8
L: 1/8
K: Ador
|:EAA Bcd|dec d3|Bee dcB|edc BAG|
E2 A Bcd|dec d3|dB/c/d gfe|1 dBG A2G:|2 dBG Ace||
|:~a3 ~a3|gba gfe|def gfe|def gfe|
caa aba|gba gfe|def gfe|1 dBG Ace:|2 dBG A2E||
|:AcE Ace|d3 edB|c3 Bed|BAG EDc|
AcE Ace|~d3 edB|~c3 Bed|1 BAG Aec:|2 BAG A2E||

